X: 3
T: Muireann's
R: jig
M: 6/8
L: 1/8
K: Bmin
BAF E2F|FDE FDE|FAA ABB|Bdd edB|BAF E2F|FDE FDE|FAB def|1 fed edB:|2 fed e3||


Tune 1902	Setting 15326

